X: 22973
T: Lass Of Richmond Hill
R: polka
M: 2/4
K: Dmajor
A|Ad dd|e/d/c/d/ eg|fd Be|d2 cA|
Ad dd|e/d/c/d/ e>d|cA B^G|A2 z d|
cA Ad|cA Ad|ce gf|f2 ed|
cA Ad|cA a>d|cd ec|d2d||
|:A|Ad df|f2f d|ce eg|g2g e|
f>e dc|dB AG|Fd Ec|d2d:|

